assets/img/icon/left-arrow.svg

<svg width="24" height="24" viewBox="0 0 24 24" fill="none" xmlns="http://www.w3.org/2000/svg">
<g id="left-arrow 1">
<g id="Group">
<path id="Vector" d="M22.5469 12.0001L12.2014 3.6435L14.7878 12.0001L12.2014 20.3567L22.5469 12.0001Z" fill="#FF3838"/>
<path id="Vector_2" d="M10.9575 14.7988L7.51659 14.7988L8.75241 12.0001L7.5166 9.2013L10.9575 9.2013L12.2014 12.0001L10.9575 14.7988Z" fill="#FF3838"/>
<path id="Vector_3" d="M4.89403 14.7988L1.45312 14.7988L2.68894 12.0001L1.45313 9.2013L4.89403 9.2013L6.13795 12.0001L4.89403 14.7988Z" fill="#FF3838"/>
</g>
</g>
</svg>

<?xml version="1.0" encoding="UTF-8"?>
<svg id="Layer_1" data-name="Layer 1" xmlns="http://www.w3.org/2000/svg" version="1.1" viewBox="0 0 24 24">
  <defs>
    <style>
      .cls-1 {
        fill: #ffcc1d;
        stroke-width: 0px;
      }
    </style>
  </defs>
  <g id="left-arrow_1" data-name="left-arrow 1">
    <g id="Group">
      <path id="Vector" class="cls-1" d="M22.5,12L12.2,3.6l2.6,8.4-2.6,8.4,10.3-8.4Z"/>
      <path id="Vector_2" data-name="Vector 2" class="cls-1" d="M11,14.8h-3.4l1.2-2.8-1.2-2.8h3.4l1.2,2.8-1.2,2.8Z"/>
      <path id="Vector_3" data-name="Vector 3" class="cls-1" d="M4.9,14.8H1.5l1.2-2.8-1.2-2.8h3.4l1.2,2.8-1.2,2.8Z"/>
    </g>
  </g>
</svg>
